X: 1
T: G\aangl\aag efter Hjort-Anders
O: Sweden
Z: 2013 John Chambers <jc:trillian.mit.edu>
S: handwritten copy of unknown origin
M: 2/4
L: 1/16
K: D
AG |\
"D"F2A2 d2f2 | "A7"(ed)cB A3g |\
"D"~f2ec "G"~d2BG | "A7"A4 A4- | A6 :|\
|: f2 | "D"(af)df a2gf |
"#m"(ef)ga b2ag |\
"D"(ag)fe d2fd | "A7"(cd)ef g2ge |\
"D"a2af "G"d2ge | "A7"Tc4 "D"d4- | d6 :|
